X:1
T:Ved Rundarne
T:Ved Rundarne
T:Til Hanchens Damekor i Bergen 1888
T:Edvard Grieg Op. 33 Nr 9
T:A. O. Vinje
T:Til Hanchens Damekor i Bergen 1888
C:AgatheEdvard Grieg Op. 33 Nr 9
Z:A. O. Vinje
%%score [ 1 2 3 ]
L:1/8
M:4/4
K:C
V:1 treble nm="S1"
V:2 treble nm="S2"
V:3 treble nm="A"
V:1
 z4 z[Q:1/4=66]"^Andante tranquillamente" C!p! E F | G3 G A!<(! A c3/2 A/!<)! |!>(! A2 G4 z G!>)! | %3
w: No ser eg|at- ter sli- ke fjell og|da- lar, som|
w: Ja li- vet|strøy- mer på meg, som det|strøym- de, når|
 E C E G!<(! A3/2 A/ A ^G!<)! | B4 z!>(! E ^G A!>)! |!pp! B3 B c c e3/2 c/ | c2 B4 z ^G | %7
w: deim eg i min fyr- ste ung- dom|såg, og sa- me|vind den hei- te pan- na|sva- lar, og|
w: un- der snjo eg såg det grø- ne|strå. Eg drøy- mer|no, som fyrr eg al- tid|drøym- de, når|
 B3/2 B/ B ^G B3/2 B/ B ^c | B4 z!mf! E!<(! A B!<)! |!>(! c3/2 c/ c2- c!<(! ^G A B!>)!!<)! | %10
w: gul- let ligg på snjo, som fyrr det|låg. Det er eit|bar- ne- mål, _ som til meg|
w: sli- ke fjell eg såg i luf- ti|blå. Eg gløy- mer|dag- sens strid, _ som fyrr eg|
!>(! d2 c2- c!<(! ^G A B!>)!!<)! |!>(! d3/2 c/ c2- c"^dim." c A c!>)! | %12
w: ta- lar, _ og gjer meg|tan- ke- full, _ men en- då|
w: gløym- de, _ når eg mot|kveld av sol _ eit glimt fekk|
!p! B6-"^molto"!<(! B!ff! =G!<)! | c!<(! d e d c!>(! d c A!<)!!>)! | c2 G4 z E | %15
w: fjåg. _ Med|ung- doms- min- ne er den ta- la|bla- da: Det|
w: sjå. _ Eg|fin- ner vel eit hus, som vil meg|hy- sa, når|
"^dim. e rit." G A B A!>(! G A G E!>)! |!p! G2 C4 z2 |] %17
w: strøy- mer på meg so eg knapt kan|an- da.|
w: so- li heim til not- ti vil meg|ly- sa.|
V:2
 z4 z C!p! C D | E3 E E!<(! E A3/2 E/!<)! |!>(! D2 D4 z D!>)! | C C C D!<(! E3/2 E/ E E!<)! | %4
w: No ser eg|at- ter sli- ke fjell og|da- lar, som|deim eg i min fyr- ste ung- dom|
w: Ja li- vet|strøy- mer på meg, som det|strøym- de, når|un- der snjo eg såg det grø- ne|
 ^G4 z!>(! E E ^F!>)! |!pp! ^G3 G G G G3/2 G/ | ^G2 G4 z E | ^G3/2 G/ G ^G A3/2 A/ G ^^F | %8
w: såg, og sa- me|vind den hei- te pan- na|sva- lar, og|gul- let ligg på snjo, som fyrr det|
w: strå. Eg drey- mer|no, som fyrr eg al- tid|drøym- de, når|sli- ke fjell eg såg i luf- ti|
 ^G4 z!mf! E!<(! E E!<)! |!>(! (EA^G) =G ^F!<(! F =F F!>)!!<)! | %10
w: låg. Det er eit|bar- * * ne- mål, som til meg|
w: blå. Eg gløy- mer|dag- * * sens strid, som fyrr eg|
!>(! (EA^G=G) ^F!<(! F =F F!>)!!<)! |!>(! A3/2 A/ A2- A A"^dim" ^F A!>)! | %12
w: ta- * * * lar, og gjer meg|tan- ke- full _ men en- då|
w: gløym- * * * de, når eg mot|kveld av sol _ eit glimt fekk|
!p! (^G2 =G2 ^F2"^molto"!<(! =F)!ff! F!<)! | E!<(! G c B A!>(! ^G A F!<)!!>)! | =G2 C4 z C | %15
w: fjåg. _ _ _ Med|ung- doms- min- ne er den ta- la|bla- da: Det|
w: sjå. _ _ _ Eg|fin- ner vel eit hus, som vil meg|hy- sa, når|
"^dim. e rit." F F F F!>(! F F D B,!>)! |!p! E2 C4 z2 |] %17
w: strøy- mer på meg so eg knapt kan|an- da.|
w: so- li heim til not- ti vil meg|ly- sa.|
V:3
 z4 z C!p! C C | C3 C C!<(! C E3/2 C/!<)! |!>(! B,2 B,4 z B,!>)! | C C A, B,!<(! C3/2 C/ C B,!<)! | %4
w: No ser eg|at- ter sli- ke fjell og|da- lar, som|deim eg i min fyr- ste ung- dom|
w: Ja li- vet|strøy- mer på meg, som det|strøym- de, når|un- der snjo eg såg det grø- ne|
 E4 z!>(! E E E!>)! |!pp! E3 E E E C3/2 E/ | E2 E4 z E | E3/2 E/ E B, ^D3/2 D/ D D | %8
w: såg, og sa- me|vind den hei- te pan- na|sva- lar, og|gul- let ligg på snjo, som fyrr det|
w: strå. Eg gløy- mer|no, som fyrr eg al- tid|drøym- de, når|sli- ke fjell eg såg i luf- ti|
 E4 z!mf! E!<(! C B,!<)! |!>(! A,3 A, D!<(! D D D!>)!!<)! |!>(! A,4 D!<(! D D D!>)!!<)! | %11
w: låg. Det er eit|bar- ne- mål, som til meg|ta- lar, og gjer meg|
w: blå. Eg gløy- mer|dag- sens strid, som fyrr eg|gløym- de, når eg mot|
!>(! F3/2 F/ (FE^D)"^dim." D D D!>)! |!p! (E4 ^D2"^molto"!<(! =D)!ff! D!<)! | %13
w: tan- ke- full, _ _ men en- då|fjåg. _ _ Med|
w: kveld av sol _ _ eit glimt fekk|sjå. _ _ Eg|
 C!<(! B, C E F!>(! E F F!<)!!>)! | F2 E4 z C |"^dim. e rit." B, C D C!>(! B, C B, G,!>)! | %16
w: ung- doms- min- ne er den ta- la|bla- da: Det|strøy- mer på meg so eg knapt kan|
w: fin- ner vel eit hus, som vil meg|hy- sa, når|so- li heim til not- ti vil meg|
!p! C2 C4 z2 |] %17
w: an- da.|
w: ly- sa.|

